X: 28409
T: Mulhaire's
R: reel
M: 4/4
K: Dmajor
|:AG|F2AF DFAF|G2BG dGBG|AceA ceAe|d3e fdAG|
F2AF DFAF|G B3 d B3|Acef gecd|eddc d2:|
|:fg|a2fd adfd|adfd edBd|e3f g3a|b e3 befg|
a2fd adfd|adfd edBA|F A3 GBdB|AFGE D2:|

